src/pos-icons/waze.svg

<svg height="24" viewBox="0 0 24 24" width="24" xmlns="http://www.w3.org/2000/svg"><path d="m20.54 6.63c.69.94 1.15 2.04 1.35 3.19.21 1.25.11 2.52-.31 3.72-.4 1.17-1.08 2.22-2 3.06-.67.64-1.43 1.17-2.26 1.58.41 1.07-.13 2.27-1.2 2.68-.24.09-.49.14-.74.14-1.11 0-2.03-.89-2.07-2-.26 0-2.58 0-3.07 0-.11 1.14-1.13 2-2.27 1.87-1.06-.1-1.86-.98-1.88-2.04.01-.19.04-.39.1-.57-1.59-.53-2.98-1.52-4-2.85-.33-.44-.23-1.07.23-1.41.18-.14.4-.22.63-.22.72 0 1-.25 1.17-.63.24-.72.38-1.47.39-2.23.03-.53.09-1.05.17-1.57.35-1.73 1.32-3.28 2.72-4.35 1.66-1.3 3.69-2 5.79-2 1.43 0 2.84.35 4.11 1 1.24.62 2.31 1.5 3.14 2.63m-3.82 10.68c1.78-.81 3.18-2.27 3.87-4.1 1.62-4.94-2.59-9.16-7.3-9.16-.35 0-.71.02-1.06.07-2.87.38-5.83 2.38-6.42 5.38-.38 2 .19 5.29-2.76 5.29.95 1.21 2.27 2.14 3.76 2.58.85-.76 2.16-.68 2.93.18.11.12.2.25.26.39h3.55c.52-1.02 1.78-1.44 2.8-.9.15.08.25.17.37.27m-5.75-7c-.58.03-1.09-.41-1.12-1-.03-.58.42-1.08 1-1.12.58-.03 1.09.42 1.12 1.06.03.55-.41 1.02-.97 1.04zm4.69 0c-.58.03-1.09-.41-1.12-1-.04-.58.42-1.08 1-1.12.58-.03 1.09.42 1.12 1.06.02.55-.41 1.02-1 1.04zm-5.95 1.76c-.06-.28.13-.57.41-.62s.56.13.62.41c.35 1.11 1.42 1.83 2.58 1.74 1.14.06 2.18-.64 2.57-1.72.14-.26.46-.38.71-.23.18.1.29.27.29.47-.19.71-.63 1.33-1.23 1.76-.69.48-1.5.75-2.34.76h-.11c-1.63.07-3.1-1-3.53-2.58z"/></svg>

<?xml version="1.0" encoding="UTF-8"?><!DOCTYPE svg PUBLIC "-//W3C//DTD SVG 1.1//EN" "http://www.w3.org/Graphics/SVG/1.1/DTD/svg11.dtd"><svg xmlns="http://www.w3.org/2000/svg" xmlns:xlink="http://www.w3.org/1999/xlink" version="1.1" id="mdi-waze" width="24" height="24" viewBox="0 0 24 24"><path d="M20.54,6.63C21.23,7.57 21.69,8.67 21.89,9.82C22.1,11.07 22,12.34 21.58,13.54C21.18,14.71 20.5,15.76 19.58,16.6C18.91,17.24 18.15,17.77 17.32,18.18C17.73,19.25 17.19,20.45 16.12,20.86C15.88,20.95 15.63,21 15.38,21C14.27,21 13.35,20.11 13.31,19C13.05,19 10.73,19 10.24,19C10.13,20.14 9.11,21 7.97,20.87C6.91,20.77 6.11,19.89 6.09,18.83C6.1,18.64 6.13,18.44 6.19,18.26C4.6,17.73 3.21,16.74 2.19,15.41C1.86,14.97 1.96,14.34 2.42,14C2.6,13.86 2.82,13.78 3.05,13.78C3.77,13.78 4.05,13.53 4.22,13.15C4.46,12.43 4.6,11.68 4.61,10.92C4.64,10.39 4.7,9.87 4.78,9.35C5.13,7.62 6.1,6.07 7.5,5C9.16,3.7 11.19,3 13.29,3C14.72,3 16.13,3.35 17.4,4C18.64,4.62 19.71,5.5 20.54,6.63M16.72,17.31C18.5,16.5 19.9,15.04 20.59,13.21C22.21,8.27 18,4.05 13.29,4.05C12.94,4.05 12.58,4.07 12.23,4.12C9.36,4.5 6.4,6.5 5.81,9.5C5.43,11.5 6,14.79 3.05,14.79C4,16 5.32,16.93 6.81,17.37C7.66,16.61 8.97,16.69 9.74,17.55C9.85,17.67 9.94,17.8 10,17.94C10.59,17.94 13.2,17.94 13.55,17.94C14.07,16.92 15.33,16.5 16.35,17.04C16.5,17.12 16.6,17.21 16.72,17.31M10.97,10.31C10.39,10.34 9.88,9.9 9.85,9.31C9.82,8.73 10.27,8.23 10.85,8.19C11.43,8.16 11.94,8.61 11.97,9.25C12,9.8 11.56,10.27 11,10.29L10.97,10.31M15.66,10.31C15.08,10.34 14.57,9.9 14.54,9.31C14.5,8.73 14.96,8.23 15.54,8.19C16.12,8.16 16.63,8.61 16.66,9.25C16.68,9.8 16.25,10.27 15.66,10.29V10.31M9.71,12.07C9.65,11.79 9.84,11.5 10.12,11.45C10.4,11.4 10.68,11.58 10.74,11.86V11.86C11.09,12.97 12.16,13.69 13.32,13.6C14.46,13.66 15.5,12.96 15.89,11.88C16.03,11.62 16.35,11.5 16.6,11.65C16.78,11.75 16.89,11.92 16.89,12.12C16.7,12.83 16.26,13.45 15.66,13.88C14.97,14.36 14.16,14.63 13.32,14.64H13.21C11.58,14.71 10.11,13.64 9.68,12.06L9.71,12.07Z" /></svg>
